lg/wire.svg

<svg viewBox="0 0 512 174" version="1.1" xmlns="http://www.w3.org/2000/svg" preserveAspectRatio="xMidYMid" height="1em" width="1em">
  <g>
    <path d="M198.232009,108.466571 C198.232009,137.475126 174.872803,161.073738 145.837477,161.073738 C134.142576,161.073738 123.232435,157.198129 114.483823,150.728837 C124.265778,139.354418 130.089517,124.603851 130.089517,108.466571 L130.110933,24.7566286 C130.110933,11.1059489 118.995041,-2.84217094e-14 105.332123,-2.84217094e-14 C91.6692058,-2.84217094e-14 80.5533136,11.1059489 80.5533136,24.7566286 L80.5318971,108.466571 C80.5318971,124.603851 86.7472512,139.354418 96.5292057,150.728837 C87.7805939,157.198129 76.8704524,161.073738 65.1747868,161.073738 C36.1402262,161.073738 12.389405,137.475126 12.389405,108.466571 L12.389405,6.34767698 L0,6.34767698 L0,108.466571 C0,144.298554 29.4391781,173.451669 65.30558,173.451669 C80.5120104,173.451669 94.613965,168.172519 105.702322,159.404786 C116.789914,168.172519 130.566797,173.451669 145.772463,173.451669 C181.638865,173.451669 210.621414,144.298554 210.621414,108.466571 L210.621414,6.34767698 L198.232009,6.34767698 L198.232009,108.466571 Z M105.310707,142.296117 C97.5931434,133.142123 92.9213021,121.34473 92.9213021,108.466571 L92.9427185,24.7566286 C92.9427185,17.9301414 98.5002822,12.3786967 105.332123,12.3786967 C112.1632,12.3786967 117.721528,17.9301414 117.721528,24.7566286 L117.700112,108.466571 C117.700112,121.34473 113.028271,133.142123 105.310707,142.296117 Z M247.810434,170.17289 L260.199838,170.17289 L260.199838,6.01212741 L247.810434,6.01212741 L247.810434,170.17289 Z M368.668475,3.15005096 C344.22009,3.15005096 322.608617,15.5096259 309.757229,34.3010138 L309.757229,6.01296877 L297.367824,6.01296877 L297.367824,170.172967 L309.757229,170.172967 L309.757229,74.3956309 L309.764113,74.3956309 C309.764113,41.948974 336.188163,15.5516939 368.668475,15.5516939 L368.668475,3.15005096 Z M400.64986,143.975319 L451.916205,92.7089735 L512,32.6244132 C510.657649,31.0732518 509.253343,29.5572745 507.780198,28.08413 C474.569434,-5.1266345 420.531191,-5.1266345 387.320426,28.08413 C354.109662,61.2948945 354.109662,115.333138 387.320426,148.543902 C420.526602,181.750077 474.553372,181.754667 507.765666,148.558435 L499.004816,139.797585 C472.098896,166.687443 429.212494,168.077216 400.64986,143.975319 Z M396.081276,36.8449798 C422.986432,9.94058913 465.882777,8.54622653 494.450765,32.6527135 L391.88901,135.214469 C367.782523,106.64648 369.176885,63.7493704 396.081276,36.8449798 Z" fill="#000000"/>
  </g>
</svg>

<svg viewBox="0 0 512 174" xmlns="http://www.w3.org/2000/svg" preserveAspectRatio="xMidYMid" height="1em" width="1em">
  <path d="M198.232 108.467c0 29.008-23.36 52.607-52.395 52.607a52.728 52.728 0 0 1-31.353-10.345c9.782-11.375 15.606-26.125 15.606-42.262l.02-83.71C130.11 11.106 118.996 0 105.333 0s-24.78 11.106-24.78 24.757l-.021 83.71c0 16.137 6.215 30.887 15.997 42.262a52.729 52.729 0 0 1-31.354 10.345c-29.035 0-52.786-23.599-52.786-52.607V6.347H0v102.12c0 35.832 29.44 64.985 65.306 64.985 15.206 0 29.308-5.28 40.396-14.047 11.088 8.768 24.865 14.047 40.07 14.047 35.867 0 64.85-29.153 64.85-64.985V6.347h-12.39v102.12Zm-92.921 33.83c-7.718-9.155-12.39-20.952-12.39-33.83l.022-83.71c0-6.827 5.557-12.378 12.39-12.378 6.83 0 12.389 5.551 12.389 12.378l-.022 83.71c0 12.878-4.672 24.675-12.39 33.83Zm142.5 27.876H260.2V6.013h-12.39v164.16ZM368.667 3.15c-24.448 0-46.06 12.36-58.91 31.151V6.013h-12.39v164.16h12.39V74.396h.006c0-32.447 26.424-58.844 58.904-58.844V3.15Zm31.982 140.825 51.266-51.266L512 32.624a86.027 86.027 0 0 0-4.22-4.54c-33.21-33.21-87.249-33.21-120.46 0-33.21 33.21-33.21 87.25 0 120.46 33.207 33.206 87.233 33.21 120.446.014l-8.761-8.76c-26.906 26.89-69.793 28.28-98.355 4.177Zm-4.569-107.13c26.905-26.904 69.802-28.299 98.37-4.192L391.889 135.214c-24.106-28.568-22.712-71.465 4.192-98.369Z"/>
</svg>
